gui/assets/trash.svg

<svg width="800px" height="800px" viewBox="0 0 24 24" fill="none" xmlns="http://www.w3.org/2000/svg">
  <path
    d="M4 6H20M16 6L15.7294 5.18807C15.4671 4.40125 15.3359 4.00784 15.0927 3.71698C14.8779 3.46013 14.6021 3.26132 14.2905 3.13878C13.9376 3 13.523 3 12.6936 3H11.3064C10.477 3 10.0624 3 9.70951 3.13878C9.39792 3.26132 9.12208 3.46013 8.90729 3.71698C8.66405 4.00784 8.53292 4.40125 8.27064 5.18807L8 6M18 6V16.2C18 17.8802 18 18.7202 17.673 19.362C17.3854 19.9265 16.9265 20.3854 16.362 20.673C15.7202 21 14.8802 21 13.2 21H10.8C9.11984 21 8.27976 21 7.63803 20.673C7.07354 20.3854 6.6146 19.9265 6.32698 19.362C6 18.7202 6 17.8802 6 16.2V6M14 10V17M10 10V17"
    stroke="white" stroke-width="2" stroke-linecap="round" stroke-linejoin="round" />
</svg>

<svg width="800" height="800" viewBox="0 0 24 24" fill="none" xmlns="http://www.w3.org/2000/svg">
  <path
    d="M4 6h16m-4 0-.27-.812c-.263-.787-.394-1.18-.637-1.471a2 2 0 0 0-.803-.578C13.938 3 13.524 3 12.694 3h-1.388c-.829 0-1.244 0-1.596.139a2 2 0 0 0-.803.578c-.243.29-.374.684-.636 1.471L8 6m10 0v10.2c0 1.68 0 2.52-.327 3.162a3 3 0 0 1-1.311 1.311C15.72 21 14.88 21 13.2 21h-2.4c-1.68 0-2.52 0-3.162-.327a3 3 0 0 1-1.311-1.311C6 18.72 6 17.88 6 16.2V6m8 4v7m-4-7v7"
    stroke="#fff" stroke-width="2" stroke-linecap="round" stroke-linejoin="round" />
</svg>
